X: 5534
T: Burning Shamrock
R: reel
M: 4/4
K: Edorian
|:eB(3BBB AABc|dcdc- cBAB-|BEEB A2FD|EddB AGFE-|
EB(3BBB AABc|dcdc- cBAB-|BddB BAef|gfga f2ed:|
BFBd eFcF|dedc egaf-|fBdf eeBc|dFFd c2BA|
BFBd eFcF|dedc egab-|bfaf gefd|Bcde- eaaz|

